assets/svg/icon_post_italictext_on.svg

<svg width="24" height="24" viewBox="0 0 24 24" fill="none" xmlns="http://www.w3.org/2000/svg">
<path fill-rule="evenodd" clip-rule="evenodd" d="M12 21C7.75736 21 5.63604 21 4.31802 19.682C3 18.364 3 16.2426 3 12C3 7.75736 3 5.63604 4.31802 4.31802C5.63604 3 7.75736 3 12 3C16.2426 3 18.364 3 19.682 4.31802C21 5.63604 21 7.75736 21 12C21 16.2426 21 18.364 19.682 19.682C18.364 21 16.2426 21 12 21ZM10.9341 7.4C10.6027 7.4 10.3341 7.66863 10.3341 8C10.3341 8.33137 10.6027 8.6 10.9341 8.6H12.2865L10.4731 15.4H8.80078C8.46941 15.4 8.20078 15.6686 8.20078 16C8.20078 16.3314 8.46941 16.6 8.80078 16.6H13.0674C13.3988 16.6 13.6674 16.3314 13.6674 16C13.6674 15.6686 13.3988 15.4 13.0674 15.4H11.7151L13.5284 8.6H15.2008C15.5322 8.6 15.8008 8.33137 15.8008 8C15.8008 7.66863 15.5322 7.4 15.2008 7.4H10.9341Z" fill="#0166FF"/>
</svg>

<svg xmlns="http://www.w3.org/2000/svg" width="24" height="24" fill="none"><path fill="#0166FF" fill-rule="evenodd" d="M12 21c-4.243 0-6.364 0-7.682-1.318S3 16.242 3 12s0-6.364 1.318-7.682S7.758 3 12 3s6.364 0 7.682 1.318S21 7.758 21 12s0 6.364-1.318 7.682S16.242 21 12 21M10.934 7.4a.6.6 0 1 0 0 1.2h1.353l-1.814 6.8H8.801a.6.6 0 1 0 0 1.2h4.266a.6.6 0 1 0 0-1.2h-1.352l1.813-6.8h1.673a.6.6 0 1 0 0-1.2z" clip-rule="evenodd"/></svg>
